!!!!SEGMENT: pl-wtm--r-131-m--004_moniuszko-stanislaw--msza-swieta-slowa-odynca-credo.krn
!!!cenid: 18xx:1727
!!!COM: Moniuszko, Stanisław
!!!COM-rismid: pe30008351
!!!CDT: 1819/05/05-1872/06/04
!!!CNT: Polish
!!!OPR: Msza święta słowa Odyńca
!!!OTL: Credo
!!!OMV: 004
!!!PDT:
!!!AGN: Sacred; Mass
!!!SMS-siglum: PL-Wtm
!!!SMS-shelfmark: R 131/M
!!!SMS-shelfwork: 001-004 M
!!!SMS-variant:
!!!SMS-altvar:
!!!NIFC-rismid: 1001097550
!!!URL-scan: http://repozytorium.nifc.pl/skany/pl-wtm-nut--r131m
!!!ONB-nifc: UWAGA: części Mszy: 1. Kyrie, 2. Gloria, 3. Graduale, 4. Credo, 5. Sanctus, 6. Benedictus, 7. Agnus
!!!key:
**kern	**kern	**kern	**dynam	**kern	**dynam	**kern	**dynam	**kern	**dynam	**kern	**dynam
*part6	*part6	*part5	*part5	*part4	*part4	*part3	*part3	*part2	*part2	*part1	*part1
*	*	*group1	*	*group1	*	*group1	*	*group1	*	*group1	*
*staff7	*staff6	*staff5	*	*staff4	*	*staff3	*	*staff2	*	*staff1	*
*Iorgan	*Iempty	*Icbass	*	*Icello	*	*Iviola	*	*Ivioln	*	*Ivioln	*
*I"Organ.	*	*I"Cbs.	*	*I"Vcell.	*	*I"Vla.	*	*I"V. 2.	*	*I"V. I.	*
*I'org	*	*I'cb	*	*I'vcl	*	*I'vla	*	*I'vl II	*	*I'vl I	*
*clefF4	*clefG2	*clefF4	*	*clefF4	*	*clefC3	*	*clefG2	*	*clefG2	*
*k[f#c#g#]	*k[f#c#g#]	*k[f#c#g#]	*	*k[f#c#g#]	*	*k[f#c#g#]	*	*k[f#c#g#]	*	*k[f#c#g#]	*
*A:	*A:	*A:	*	*A:	*	*A:	*	*A:	*	*A:	*
*M4/4	*M4/4	*M4/4	*	*M4/4	*	*M4/4	*	*M4/4	*	*M4/4	*
*met(c)	*met(c)	*met(c)	*	*met(c)	*	*met(c)	*	*met(c)	*	*met(c)	*
!LO:TX:a:t=P:problem:brak klucza i znaków	!LO:TX:a:t=P:problem:brak klucza i znaków	!LO:TX:a:t=P:problem:znaki zapisane znakiem powtórki	!	!	!	!LO:TX:a:t=P:problem:znaki F# c# G#	!	!LO:TX:a:t=P:problem:znaki f# cc# g#, zapisane znakiem powtórki	!	!LO:TX:a:t=P:problem:znaki f# cc# g#	!
2ryy	2ryy	2r	.	4r	.	4r	.	4r	.	4r	.
.	.	.	.	4r	.	4r	.	4r	.	4r	.
=1	=1	=1	=1	=1	=1	=1	=1	=1	=1	=1	=1
!LO:TX:a:t=3	!	!LO:TX:a:t=3	!	!LO:TX:a:t=3	!	!LO:TX:a:t=3	!	!LO:TX:a:t=3	!	!LO:TX:a:t=3	!
0r	0r	0r	.	0r	.	0r	.	0r	.	0r	.
=2	=2	=2	=2	=2	=2	=2	=2	=2	=2	=2	=2
=3	=3	=3	=3	=3	=3	=3	=3	=3	=3	=3	=3
1r	1r	1r	.	1r	.	1r	.	1r	.	1r	.
=4	=4	=4	=4	=4	=4	=4	=4	=4	=4	=4	=4
!	!	!	!	!	!	!	!	!	!	!LO:TX:a:t=a=	!
1ryy	1ryy	2ryy	.	2r	.	2r	.	2r	.	2r	.
*	*	*2\right	*	*	*	*	*	*	*	*	*
!	!	!	!	!	!	!	!	!	!LO:DY:rj	!	!LO:DY:rj
.	.	2A\	.	4A\	.	4A/	.	4c#/	p	4a/	p
.	.	.	.	8A\L	.	8B/L	.	8d/L	.	8a/L	.
.	.	.	.	8A\J	.	8c#/J	.	8e/J	.	8a/J	.
=5	=5	=5	=5	=5	=5	=5	=5	=5	=5	=5	=5
1ryy	1ryy	2D\	.	4.D\	.	4.d/	.	4.f#/	.	4.a/	.
.	.	.	.	8D\	.	8c#/	.	8e/	.	8a/	.
.	.	2E\	.	4E\	.	4B/	.	4d/	.	4g#/	.
.	.	.	.	8E\L	.	8A/L	.	8d/L	.	8f#/L	.
.	.	.	.	8E\J	.	8G#/J	.	8d/J	.	8e/J	.
=6	=6	=6	=6	=6	=6	=6	=6	=6	=6	=6	=6
!	!	!	!	!	!	!	!	!	!	!LO:TX:a:t==B.	!
1ryy	1ryy	[2AA/	.	[2AA/	.	[2A/	.	[2c#/	.	(2e/	.
.	.	8AA/]	.	8AA/]	.	8A/]	.	8c#/]	.	8a/)	.
.	.	8r	.	8r	.	8r	.	8r	.	8r	.
.	.	4r	.	4r	.	4r	.	4r	.	4r	.
=7	=7	=7	=7	=7	=7	=7	=7	=7	=7	=7	=7
!	!	!LO:TX:a:t=3	!	!LO:TX:a:t=3	!	!LO:TX:a:t=3	!	!LO:TX:a:t=3	!	!LO:TX:a:t=3	!
1ryy	1ryy	0r	.	0r	.	0r	.	0r	.	0r	.
=8	=8	=8	=8	=8	=8	=8	=8	=8	=8	=8	=8
1ryy	1ryy	.	.	.	.	.	.	.	.	.	.
=9	=9	=9	=9	=9	=9	=9	=9	=9	=9	=9	=9
1ryy	1ryy	1r	.	1r	.	1r	.	1r	.	1r	.
=10	=10	=10	=10	=10	=10	=10	=10	=10	=10	=10	=10
!	!	!	!	!	!	!	!	!	!	!LO:TX:a:t=a=B.:problem:notatka w dwóch pustych taktach na pięcioliniach	!
1ryy	1ryy	2ryy	.	2ryy	.	2ryy	.	2ryy	.	2ryy	.
!	!	!	!	!	!	!	!	!	!LO:DY:rj	!	!LO:DY:rj
.	.	2A\yy	.	4A\yy	.	4A/yy	.	4c#/yy	p	4a/yy	p
.	.	.	.	8A\Lyy	.	8B/Lyy	.	8d/Lyy	.	8a/Lyy	.
.	.	.	.	8A\Jyy	.	8c#/Jyy	.	8e/Jyy	.	8a/Jyy	.
=5	=5	=5	=5	=5	=5	=5	=5	=5	=5	=5	=5
1ryy	1ryy	2D\yy	.	4.D\yy	.	4.d/yy	.	4.f#/yy	.	4.a/yy	.
.	.	.	.	8D\yy	.	8c#/yy	.	8e/yy	.	8a/yy	.
.	.	2E\yy	.	4E\yy	.	4B/yy	.	4d/yy	.	4g#/yy	.
.	.	.	.	8E\Lyy	.	8A/Lyy	.	8d/Lyy	.	8f#/Lyy	.
.	.	.	.	8E\Jyy	.	8G#/Jyy	.	8d/Jyy	.	8e/Jyy	.
=6	=6	=6	=6	=6	=6	=6	=6	=6	=6	=6	=6
*	*	*	*	*2\right	*	*	*	*	*	*	*
1ryy	1ryy	[2AA/	.	[2E\	.	[2A/	.	[2c#/	.	(2e/	.
.	.	8AA/]	.	8E\]	.	8A/]	.	8c#/]	.	8a/)	.
.	.	8r	.	8r	.	8r	.	8r	.	8cc#/L	mf
.	.	4r	.	4r	.	4r	.	4r	.	8b/	.
.	.	.	.	.	.	.	.	.	.	8a/J	.
=11	=11	=11	=11	=11	=11	=11	=11	=11	=11	=11	=11
1ryy	1ryy	1r	.	2r	.	8r	.	8r	.	4.ee\	.
.	.	.	.	.	.	8g#\L	mf	8g#/L	mf	.	.
.	.	.	.	.	.	8f#\	.	8f#/	.	.	.
.	.	.	.	.	.	8e\J	.	8e/J	.	8ee\	.
.	.	.	.	8r	.	8b\	.	4b/	.	4dd#X\	.
.	.	.	.	8B\L	mf	8B/L	.	.	.	.	.
.	.	.	.	8c#\	.	8c#/	.	4a/	.	8cc#\L	.
.	.	.	.	8d#X\J	.	8d#X/J	.	.	.	8b\J	.
!!LO:PB:g=original
=12	=12	=12	=12	=12	=12	=12	=12	=12	=12	=12	=12
*	*	*	*	*	*	*	*	*	*	*2\right	*
1ryy	1ryy	2r	.	(8e\L	.	(8e/L	.	1ryy	.	2b\	.
.	.	.	.	8B\	.	8B/	.	.	.	.	.
.	.	.	.	8c#\	.	8c#/	.	.	.	.	.
.	.	.	.	8A\J	.	8G#/J)	.	.	.	.	.
.	.	8r	.	8B\)	.	8B/	.	.	.	8a/	.
.	.	8E/L	.	8E\L	.	8E/L	.	.	.	8a/L	.
.	.	8D#X/	.	8D#X\	.	8D#X/	.	.	.	8f#/	.
.	.	8C#/J	.	8C#\J	.	8C#/J	.	.	.	8e/J	.
=13	=13	=13	=13	=13	=13	=13	=13	=13	=13	=13	=13
!	!	!	!	!	!	!	!	!	!	!LO:TX:a:t=P:problem:mixed beam	!
1ryy	1ryy	2.BB/	.	8BB/	.	8r	.	8r	.	8ee\L	.
.	.	.	.	8G#\L	.	8G#/L	.	8e/L	.	8e/	.
.	.	.	.	8A\	.	8A/	.	8f#/	.	8f#/	.
.	.	.	.	8B\J	.	8B/J	.	8g#/J	.	8g#/J	.
!	!	!	!	!	!	!	!	!	!	!LO:TX:a:t=P:problem:skreslona nuta 8ee\	!
!	!	!	!	!	!	!	!	!	!	!LO:TX:a:t=P:problem:mixed beam	!
.	.	.	.	4c#\	.	4c#\	.	2a/	.	8f#/L	.
.	.	.	.	.	.	.	.	.	.	8dd#X\	.
.	.	4B\	.	4d#X\	.	4d#X\	.	.	.	8cc#\	.
.	.	.	.	.	.	.	.	.	.	8b\J	.
=14	=14	=14	=14	=14	=14	=14	=14	=14	=14	=14	=14
1ryy	1ryy	4E\	.	(8e\L	.	(8e/L	.	2g#/	.	(4b\	.
.	.	.	.	8B\	.	8B/	.	.	.	.	.
.	.	4r	.	8dn\	.	8dn/	.	.	.	4ee\	.
.	.	.	.	8G#\J	.	8G#/J)	.	.	.	.	.
.	.	2r	.	8A\)	.	8A/	.	8a/	.	8cc#\)	.
.	.	.	.	8E/L	.	8E/L	.	4a^/	.	8a/L	.
.	.	.	.	8C#/	.	8c#/	.	.	.	8cc#/	.
!	!	!	!	!	!	!	!	!LO:TX:a:t=P:problem:skreslona nuta 8a	!	!	!
.	.	.	.	8BB/J	.	8B/J	.	8b/	.	8dd/J	.
=15	=15	=15	=15	=15	=15	=15	=15	=15	=15	=15	=15
*	*	*	*	*	*	*	*	*2\right	*	*	*
1ryy	1ryy	[1A	.	8AA/	.	8A/	.	(2cc#\	.	(2ee\	.
.	.	.	.	(8E\L	.	(8E/L	.	.	.	.	.
.	.	.	.	8A\	.	8A/	.	.	.	.	.
.	.	.	.	8G#\J	.	8G#/J	.	.	.	.	.
.	.	.	.	8A\L)	.	8A/)	.	8a/)	.	8cc#\)	.
.	.	.	.	8E\	.	8E/L	.	8a/L	.	8cc#\L	.
.	.	.	.	8c#\	.	8c#/	.	8cc#/	.	8ee\	.
.	.	.	.	8A\J	.	8A/J	.	8dd/J	.	8ff#\J	.
=16	=16	=16	=16	=16	=16	=16	=16	=16	=16	=16	=16
1ryy	1ryy	1A^<]	.	8r	.	8r	.	2cc#\	.	(2ee\	.
.	.	.	.	(8E\L	.	(8E/L	.	.	.	.	.
.	.	.	.	8A\	.	8A/	.	.	.	.	.
.	.	.	.	8G#\J	.	8G#/J	.	.	.	.	.
.	.	.	.	8A\L)	.	8A/)	.	8a/	.	8cc#\)	.
.	.	.	.	8E\	.	8E/L	.	8e/L	.	8e/L	.
!	!	!	!	!	!	!	!	!	!	!LO:TX:a:t=P:problem:skreslona nuta 8e	!
.	.	.	.	8F#\	.	8F#/	.	8c#/	.	8a/	.
.	.	.	.	8E\J	.	[8E/J	.	8e/J	.	8b/J	.
=17	=17	=17	=17	=17	=17	=17	=17	=17	=17	=17	=17
1ryy	1ryy	4AA/	.	4AA/	.	8E/]	.	4e/	.	4.cc#\	.
.	.	.	.	.	.	4E^/	.	.	.	.	.
.	.	4BB/	.	4BB/	.	.	.	4d/	.	.	.
.	.	.	.	.	.	4E^/	.	.	.	8g#/	.
.	.	4C#/	.	4C#/	.	.	.	4c#/	.	8.a/L	.
.	.	.	.	.	.	4E^/	.	.	.	.	.
.	.	.	.	.	.	.	.	.	.	16e/	.
.	.	4AA/	.	4AA/	.	.	.	8.c#/L	.	8.f#/	.
.	.	.	.	.	.	[8E^/	.	.	.	.	.
.	.	.	.	.	.	.	.	16A/Jk	.	16c#/Jk	.
!!LO:LB:g=original
=18	=18	=18	=18	=18	=18	=18	=18	=18	=18	=18	=18
1ryy	1ryy	2EE/	.	2EE/	.	8E/L]	.	2B^/	.	4.e 4.G#^/	.
.	.	.	.	.	.	8E/|	.	.	.	.	.
.	.	.	.	.	.	8B/|	.	.	.	.	.
.	.	.	.	.	.	8E/J|	.	.	.	8d/	.
.	.	[2AA/	.	8AA/	.	8A/L	.	8A/	.	8c#/	.
.	.	.	.	8E/L	.	8E/	.	8A/L	.	8r	.
.	.	.	.	8C#/	.	8C#/	.	8c#/	.	4r	.
.	.	.	.	8BB/J	.	8E/J	.	8d/J	.	.	.
=19	=19	=19	=19	=19	=19	=19	=19	=19	=19	=19	=19
1ryy	1ryy	1AA^_>	.	8AA/	.	8r	.	2e/	.	2r	.
.	.	.	.	8E\L	.	8E/L	.	.	.	.	.
.	.	.	.	8A\	.	8A/	.	.	.	.	.
.	.	.	.	8B\J	.	8B/J	.	.	.	.	.
.	.	.	.	8c#\L	.	8c#/L	.	8c#/	.	8r	.
.	.	.	.	8e\	.	8e/	.	8e/L	.	8e/L	.
.	.	.	.	8c#\	.	8c#/	.	8c#/	.	8a/	.
.	.	.	.	8B\J	.	8B/J	.	8e/J	.	8b/J	.
=20	=20	=20	=20	=20	=20	=20	=20	=20	=20	=20	=20
1ryy	1ryy	2AA/_	.	8A\	.	8A/L	.	2a/	.	2cc#\	.
.	.	.	.	8E\L	.	8E/	.	.	.	.	.
.	.	.	.	8A\	.	8A/	.	.	.	.	.
.	.	.	.	8G#\J	.	8G#/J	.	.	.	.	.
.	.	8AA/L]	.	8A\	.	8A/	.	8c#/	.	8a/	.
.	.	8E/	.	8E/L	.	4e\	.	8a/L	.	8a\L	.
.	.	8C#/	.	8C#/	.	.	.	8a/	.	8cc#\	.
!	!	!	!	!LO:TX:a:t=P:problem:skreślona nuta 8AA	!	!	!	!	!	!	!
.	.	8BB/J	.	8BB/J	.	8e\	.	8b/J	.	8dd\J	.
=21	=21	=21	=21	=21	=21	=21	=21	=21	=21	=21	=21
*	*^	*	*	*	*	*	*	*	*	*	*
1ryy	4.ee/	8cc#\L	2AA^/	.	4AA/	.	4a\	.	8cc#/L	.	4.ee\	.
.	.	8e\	.	.	.	.	.	.	8e/	.	.	.
.	.	8a\	.	.	4E\	.	4e\	.	8a/	.	.	.
.	8b/	8g#\J	.	.	.	.	.	.	8g#/J	.	8b\	.
.	2ryy	2ryy	8A\L	.	8A\L	.	4c#\	.	8.a/L	.	8.cc#/L	.
.	.	.	8E\	.	8E\	.	.	.	.	.	.	.
.	.	.	.	.	.	.	.	.	16g#/K	.	16g#/K	.
.	.	.	8C#\	.	8C#\	.	4A/	.	8f#/	.	8a/	.
.	.	.	8AA\J	.	8AA\J	.	.	.	8e/J	.	8e/J	.
*	*v	*v	*	*	*	*	*	*	*	*	*	*
=22	=22	=22	=22	=22	=22	=22	=22	=22	=22	=22	=22
1ryy	1ryy	[2D\	.	8D\L	.	8A^/	.	2e/	.	2g#/	.
.	.	.	.	(8A\	.	(8A/L	.	.	.	.	.
.	.	.	.	8D\	.	8D/	.	.	.	.	.
.	.	.	.	8E\J)	.	8E/J)	.	.	.	.	.
.	.	8D\]	.	[2F#\	.	8F#/	.	8d/	.	8f#/	.
.	.	8r	.	.	.	(8B/L	.	4f#/	.	(8dd\L	.
.	.	4r	.	.	.	8c#/)	.	.	.	8cc#\)	.
.	.	.	.	.	.	8d/J	.	8f#/	.	8b\J	.
=23	=23	=23	=23	=23	=23	=23	=23	=23	=23	=23	=23
!	!	!LO:TX:a:t=P:problem:skreślony łuk	!	!	!	!	!	!LO:TX:a:t=(x) V. 2do:problem:takt wykreślony i zapisany na górze	!	!LO:S:s=1:note:problem:note-level slur	!
1ryy	1ryy	2F#\	.	2F#\]	.	8c#/	.	8e/L	.	(<2a#X (2e/	.
.	.	.	.	.	.	8c#\L	.	8c#/	.	.	.
.	.	.	.	.	.	8f#\	.	8f#/	.	.	.
.	.	.	.	.	.	8c#\J	.	8c#/J	.	.	.
.	.	8BB/	.	8BB/	.	8d\	.	8d/	.	8b) 8d/)	.
.	.	8ryy	.	(8B\L	.	(8B\L	.	4f#^/	.	(8dd\L	.
.	.	4ryy	.	8c#\)	.	8c#\)	.	.	.	8cc#\)	.
.	.	.	.	8d\J	.	8d\J	.	8f#/	.	8b\J	.
!!LO:PB:g=original
=24	=24	=24	=24	=24	=24	=24	=24	=24	=24	=24	=24
1ryy	1ryy	(2E\	.	8E\	.	8e\	.	(2f##X/	.	(<2a#X/	.
.	.	.	.	8E\L	.	8e\L	.	.	.	.	.
.	.	.	.	8c#\	.	8c#\	.	.	.	.	.
.	.	.	.	8E\J	.	8e\J	.	.	.	.	.
.	.	8EE/)	.	8E\	.	8B/	.	8g#/)	.	8b/)	.
.	.	8r	.	8d\L	<	4e^\	.	8g#/L	<	8b\L	<
.	.	4r	.	8c#\	.	.	.	8a/	.	8cc#\	.
.	.	.	.	8B\J	[	[8e\	.	8b/J	[	8dd\J	[[
=25	=25	=25	=25	=25	=25	=25	=25	=25	=25	=25	=25
!	!	!LO:TX:a:t=P:problem:nuta dopisana ołówkiem	!	!	!	!	!	!	!	!	!
1ryy	1ryy	1Ayy	.	[2A\	.	8e\]	.	8cc#\	sf	4.ee\	sf
!	!	!	!	!	!	!	!	!LO:TX:a:t=P:problem:mixed beam	!	!	!
.	.	.	.	.	.	(8e\L	.	(>8e/L	.	.	.
.	.	.	.	.	.	8a\	.	8a/	.	.	.
.	.	.	.	.	.	8g#\J	.	8dd\J	.	8ff#\	.
.	.	.	.	8A\L]	.	8a\L)	.	(8cc#/L)	.	(8ee\L	.
.	.	.	.	8e\	.	8e\	.	8a/)	.	8cc#\)	.
.	.	.	.	8c#\	.	8c#\	.	8e/	.	8a\	.
.	.	.	.	8d\J	.	8d\J	.	8aJ 8e/	.	8b\J	.
=26	=26	=26	=26	=26	=26	=26	=26	=26	=26	=26	=26
1ryy	1ryy	4A\	.	8e\	.	8e\	.	2.a^/	.	4.cc#^\	.
.	.	.	.	(8A\L	.	(8A\L	.	.	.	.	.
.	.	4r	.	8e\	.	8e\	.	.	.	.	.
.	.	.	.	8f#\J	.	8f#\J	.	.	.	8dd\	.
.	.	4A\	.	8e\)	.	8e\L)	.	.	.	(8cc#/L	.
.	.	.	.	8A\L	.	8c#\J	.	.	.	8a/)	.
.	.	8C#\L	.	8C#\	.	[4A/	.	4A/	.	8e/	.
.	.	8D\J	.	8D\J	.	.	.	.	.	8f#/J	.
=27	=27	=27	=27	=27	=27	=27	=27	=27	=27	=27	=27
1ryy	1ryy	4E\	.	4E\	.	4A/]	.	(>4e 4A/	.	2a/	.
.	.	4F#\	.	4F#\	.	2B/	.	4d#X/	.	.	.
.	.	4G#\	.	4G#\	.	.	.	4dn/	.	(8g#/L	.
.	.	.	.	.	.	.	.	.	.	8f#/	.
.	.	4A\	.	4A\	.	4A/	.	[4c#/)	.	8e/	.
.	.	.	.	.	.	.	.	.	.	8cc#/J)	.
=28	=28	=28	=28	=28	=28	=28	=28	=28	=28	=28	=28
*	*	*	*	*	*	*2\right	*	*	*	*	*
1ryy	1ryy	8D\	.	4D/	.	2f#\	.	4c#/]	.	4cc#\	.
.	.	8r	.	.	.	.	.	.	.	.	.
.	.	4r	.	4BB/	.	.	.	8d/L	.	4b\	.
.	.	.	.	.	.	.	.	8c#/J	.	.	.
!	!	!LO:TX:b:t=ralent	!	!LO:TX:b:t=ralent	!	!LO:TX:b:t=ralent.	!	!LO:TX:a:t=ralent	!	!LO:TX:a:t=ralent	!
.	.	2E\	.	2E\	.	2e\	.	4B/	.	4.dd\	.
.	.	.	.	.	.	.	.	4d/	.	.	.
.	.	.	.	.	.	.	.	.	.	8g#/	.
=29	=29	=29	=29	=29	=29	=29	=29	=29	=29	=29	=29
!	!	!LO:TX:a:t=a tempo 1mo	!	!	!	!LO:TX:a:t=a tempo 1mo	!	!LO:TX:a:t=a tempo 1mo	!	!LO:TX:a:t=a tempo. 1.mo	!
1ryy	1ryy	1A	.	[2A\	.	[2A/	.	2c#/	.	8a/	.
.	.	.	.	.	.	.	.	.	.	8a/L	.
.	.	.	.	.	.	.	.	.	.	8g#/	.
.	.	.	.	.	.	.	.	.	.	8f#/J	.
.	.	.	.	(8A\L]	.	(8A/L]	.	2d 2B/	.	[2e/	.
.	.	.	.	8G#\	.	8G#/	.	.	.	.	.
.	.	.	.	8F#\	.	8F#/	.	.	.	.	.
.	.	.	.	8E\J)	.	8E/J)	.	.	.	.	.
=30	=30	=30	=30	=30	=30	=30	=30	=30	=30	=30	=30
*	*	*	*	*rep	*	*rep	*	*rep	*	*	*
1ryy	1ryy	1A	.	[2A\	.	[2A/	.	2c#/	.	8e/L]	.
.	.	.	.	.	.	.	.	.	.	(8a/	.
.	.	.	.	.	.	.	.	.	.	8g#/	.
.	.	.	.	.	.	.	.	.	.	8f#/J)	.
.	.	.	.	(8A\L]	.	(8A/L]	.	2d 2B/	.	[2e/	.
.	.	.	.	8F#\	.	8G#/	.	.	.	.	.
.	.	.	.	8E\	.	8F#/	.	.	.	.	.
.	.	.	.	8D\J)	.	8E/J)	.	.	.	.	.
*	*	*	*	*Xrep	*	*Xrep	*	*Xrep	*	*	*
=31	=31	=31	=31	=31	=31	=31	=31	=31	=31	=31	=31
!	!	!	!	!	!	!	!	!LO:TX:a:t=P:problem:nuta dopisana ołówkiem	!	!	!
1ryy	1ryy	[<1A	.	4E\	.	4E/	.	4c#/yy	.	8e/]	.
.	.	.	.	.	.	.	.	.	.	(8cc#\L	.
.	.	.	.	(4Gn\	>	(4Gn/	.	4e/	.	8ee\	>
.	.	.	.	.	.	.	.	.	>	8a#X\J	.
.	.	.	.	4F#\	.	4F#/	.	(2d/	.	8b/L	.
.	.	.	.	.	.	.	.	.	.	8dd/	.
.	.	.	.	4Fn\	.	4Fn/	.	.	.	8g#/	.
.	.	.	.	.	.	.	.	.	.	8b/J	.
=32	=32	=32	=32	=32	=32	=32	=32	=32	=32	=32	=32
1ryy	1ryy	1A_<	.	2E\)	.	2E/)	.	4c#/)	]	8a/)	.
.	.	.	.	.	]	.	.	.	.	(8e/L	]
.	.	.	.	.	.	.	.	4A#X/	.	8gn/	.
.	.	.	.	.	.	.	.	.	.	8c#/J	.
.	.	.	.	4.D/	.	(4Fn^/	.	(8B/L	.	8d/L	.
.	.	.	.	.	.	.	.	8An/J)	.	8fn/	.
.	.	.	.	.	.	4E/)	.	4G#/	.	8B/	.
.	.	.	.	8BB/	.	.	.	.	.	8e/J	.
=33	=33	=33	=33	=33	=33	=33	=33	=33	=33	=33	=33
!	!	!	!	!	!LO:DY:t=pp.	!	!LO:DY:t=pp.	!	!LO:DY:t=pp.	!	!LO:DY:t=pp.
1ryy	1ryy	4A\]	.	2.AA/	pp	2E/	pp	2A/	pp	2c#/)	pp
.	.	4r	.	.	.	.	.	.	.	.	.
.	.	2r	.	.	.	4A/	.	4c#/	.	4e/	.
!	!	!	!	!	!	!	!	!LO:TX:a:t=P:problem:skreślona nuta	!	!	!
.	.	.	.	[4A\	.	4e\	.	4c#/	.	4a/	.
=34	=34	=34	=34	=34	=34	=34	=34	=34	=34	=34	=34
!	!	!LO:TX:a:t=P:problem:skreślona nuta	!	!LO:TX:a:t=P:problem:skreślona nuta	!	!	!	!	!	!	!
1ryy	1ryy	4r	.	4A\]	.	[1c#	.	[>1a	.	[1cc# [>1e	.
!	!	!	!LO:DY:t=pp.	!	!	!	!	!	!	!	!
.	.	4A\	pp	4A\	.	.	.	.	.	.	.
.	.	4E\	.	4E\	.	.	.	.	.	.	.
.	.	4C#/	.	4C#/	.	.	.	.	.	.	.
=35	=35	=35	=35	=35	=35	=35	=35	=35	=35	=35	=35
1ryy	1ryy	1AA	.	1AA	.	1c#]	.	1a]	.	1cc#] 1e]	.
==	==	==	==	==	==	==	==	==	==	==	==
*-	*-	*-	*-	*-	*-	*-	*-	*-	*-	*-	*-
!!!system-decoration: ([g1]{p6})
!!!RDF**kern: > = above
!!!RDF**kern: < = below
!!!RDF**kern: | = vertical stroke
!!!AIN: 1 cbass 1 cello 1 organ 1 viola 2 violn
!!!ENC: Marta Lawrence
!!!END: 2021-04-18
!!!ENC: Berenika Jozajtis
!!!END: 2021-04-02
